img/shampionone.svg

<svg width="40" height="40" viewBox="0 0 40 40" fill="none" xmlns="http://www.w3.org/2000/svg">
<path d="M24.053 16.1406C19.3661 11.4537 16.8335 10.5122 15.1576 9.88919C14.4497 9.62599 14.0223 9.46709 13.6627 9.10748C13.3501 8.7949 13.3847 8.53741 13.5215 8.40061C13.6785 8.24374 13.9056 8.29077 14.1447 8.52983C14.184 8.56905 14.2265 8.60358 14.2715 8.63334C15.0982 9.39342 16.1642 9.80974 17.2942 9.80974C18.4884 9.80974 19.6111 9.34467 20.4556 8.50014C22.1988 6.75695 22.1988 3.9204 20.4556 2.17713C18.6414 0.362926 15.9726 -0.352226 12.9403 0.163083C10.0105 0.661205 7.07197 2.26049 4.66628 4.66618C2.26044 7.0721 0.661229 10.0105 0.163186 12.9404C-0.352358 15.9724 0.36295 18.6415 2.17708 20.4558C3.92043 22.1991 6.75689 22.199 8.50009 20.4558C10.2311 18.7248 10.2431 15.9157 8.53642 14.1695C8.53134 14.1641 8.52618 14.1589 8.52095 14.1535C8.28189 13.9145 8.23478 13.6874 8.39181 13.5304C8.52852 13.3936 8.7861 13.3589 9.09868 13.6716C9.45828 14.0311 9.61719 14.4585 9.88039 15.1665C10.5034 16.8424 11.4448 19.375 16.1318 24.0619C16.2904 24.2206 16.4984 24.2999 16.7062 24.2999C16.9141 24.2999 17.1221 24.2206 17.2806 24.0622L24.0531 17.2896C24.3703 16.9723 24.3703 16.4579 24.053 16.1406ZM16.7104 22.3345C12.7681 18.2714 11.9516 16.0756 11.4032 14.6005C11.1105 13.813 10.8577 13.1329 10.2475 12.5228C9.74336 12.0186 9.17422 11.8086 8.64352 11.8086C8.09876 11.8086 7.59447 12.03 7.24299 12.3814C6.55955 13.0649 6.37635 14.2651 7.32877 15.2579C7.33611 15.2659 7.34361 15.2737 7.35134 15.2813C8.46118 16.3911 8.46118 18.1969 7.35134 19.3067C6.24166 20.4165 4.43589 20.4165 3.32606 19.3067C1.89458 17.8752 1.34005 15.7108 1.76482 13.2125C2.207 10.6118 3.64535 7.9846 5.8151 5.81492C7.98478 3.64525 10.6119 2.20682 13.2126 1.76471C15.7109 1.33987 17.8753 1.89448 19.3068 3.32588C20.4167 4.43571 20.4167 6.2414 19.3068 7.35124C18.7692 7.88882 18.0544 8.18491 17.2942 8.18491C16.5339 8.18491 15.8191 7.88882 15.2815 7.35124C15.2383 7.30812 15.1914 7.27077 15.1415 7.23913C14.1708 6.39883 13.0315 6.59273 12.3728 7.25163C11.6787 7.94569 11.4924 9.23451 12.514 10.2562C13.1242 10.8665 13.8042 11.1192 14.5917 11.4119C16.0668 11.9603 18.2626 12.7768 22.3257 16.7192L16.7104 22.3345Z" fill="#FF7010"/>
<path d="M39.8606 28.4195C39.4377 25.9317 38.0812 23.4381 36.0411 21.398C34.0009 19.3579 31.5073 18.0014 29.0195 17.5785C26.4296 17.1381 24.1468 17.7519 22.5919 19.3067C21.0768 20.822 21.0768 23.2874 22.5919 24.8027C23.326 25.5368 24.3019 25.941 25.3399 25.941C26.3628 25.941 27.3253 25.5485 28.0555 24.8348C28.0604 24.8301 28.0654 24.8252 28.0703 24.8203C28.1626 24.728 28.2544 24.6745 28.322 24.6735C28.3627 24.6708 28.3924 24.694 28.4102 24.7118C28.4279 24.7295 28.4574 24.7682 28.4564 24.8282C28.455 24.9128 28.3965 25.0173 28.2915 25.1221C27.964 25.4497 27.3217 25.8081 26.5084 26.2619C24.5466 27.3565 21.5821 29.0108 17.6696 32.9232C17.5173 33.0756 17.4316 33.2822 17.4316 33.4976C17.4316 33.713 17.5173 33.9197 17.6696 34.072L23.3596 39.7619C23.5182 39.9205 23.7261 39.9999 23.9339 39.9999C24.1418 39.9999 24.3498 39.9205 24.5087 39.7619C28.421 35.8495 30.0753 32.8849 31.17 30.9232C31.6238 30.11 31.9823 29.4676 32.3097 29.1402C32.4729 28.9771 32.6301 28.9317 32.72 29.0215C32.8207 29.1222 32.6952 29.2777 32.6115 29.3615C32.5748 29.3982 32.5423 29.4376 32.514 29.4793C31.8574 30.1969 31.498 31.1204 31.498 32.0993C31.498 33.1373 31.9023 34.1133 32.6363 34.8473C34.1516 36.3625 36.617 36.3626 38.1323 34.8473C39.6872 33.2922 40.3009 31.0096 39.8606 28.4195ZM36.9832 33.6985C36.1015 34.5802 34.6667 34.5802 33.785 33.6985C33.3579 33.2714 33.1226 32.7035 33.1226 32.0993C33.1226 31.4952 33.3578 30.9273 33.785 30.5002C33.8261 30.459 33.862 30.4144 33.8926 30.3671C34.6328 29.5003 34.4493 28.4535 33.8686 27.8728C33.2409 27.2451 32.0787 27.0734 31.1607 27.9914C30.6734 28.4786 30.2866 29.1719 29.751 30.1315C28.755 31.9164 27.2763 34.5664 23.929 38.0337L19.3978 33.5025C22.865 30.1552 25.515 28.6765 27.3 27.6807C28.2596 27.1452 28.953 26.7583 29.4403 26.2709C30.3583 25.353 30.1866 24.1907 29.5589 23.5631C28.9553 22.9594 27.8477 22.7851 26.9624 23.6315C26.9544 23.6388 26.9465 23.6463 26.9388 23.6541C26.0571 24.5358 24.6222 24.5358 23.7405 23.6541C23.3134 23.2269 23.0781 22.659 23.0781 22.0549C23.0781 21.4509 23.3133 20.8829 23.7405 20.4558C24.9125 19.2837 26.6905 18.8308 28.747 19.1803C30.9057 19.5474 33.088 20.743 34.8919 22.547C36.696 24.351 37.8916 26.5333 38.2585 28.6919C38.6083 30.7484 38.1553 32.5264 36.9832 33.6985Z" fill="#FF7010"/>
</svg>

<svg width="40" height="40" fill="none" xmlns="http://www.w3.org/2000/svg"><path d="M24.053 16.14c-4.687-4.686-7.22-5.628-8.895-6.25-.708-.264-1.136-.423-1.495-.783-.313-.312-.278-.57-.142-.706.157-.157.385-.11.624.129.039.04.082.074.127.103a4.439 4.439 0 0 0 3.022 1.177 4.441 4.441 0 0 0 3.162-1.31 4.476 4.476 0 0 0 0-6.323C18.64.363 15.973-.353 12.94.163 10.01.661 7.072 2.26 4.666 4.666 2.26 7.072.661 10.011.163 12.94c-.515 3.032.2 5.702 2.014 7.516a4.476 4.476 0 0 0 6.323 0 4.476 4.476 0 0 0 .036-6.287l-.015-.016c-.24-.239-.286-.466-.13-.623.138-.136.395-.171.708.142.36.36.518.787.781 1.494.623 1.676 1.565 4.209 6.252 8.896a.81.81 0 0 0 1.149 0l6.772-6.772a.813.813 0 0 0 0-1.15Zm-7.343 6.194c-3.942-4.063-4.758-6.258-5.307-7.733-.293-.788-.545-1.468-1.155-2.078-.505-.504-1.074-.714-1.604-.714a1.99 1.99 0 0 0-1.401.572c-.683.684-.867 1.884.086 2.877a2.85 2.85 0 0 1 .023 4.049 2.85 2.85 0 0 1-4.026 0c-1.431-1.432-1.986-3.596-1.561-6.094.442-2.601 1.88-5.228 4.05-7.398s4.797-3.608 7.398-4.05c2.498-.425 4.662.13 6.094 1.56a2.85 2.85 0 0 1 0 4.026 2.828 2.828 0 0 1-2.013.834c-.76 0-1.475-.296-2.013-.834a.818.818 0 0 0-.14-.112c-.97-.84-2.11-.646-2.768.013-.694.694-.88 1.983.141 3.004.61.61 1.29.863 2.078 1.156 1.475.548 3.67 1.365 7.734 5.307l-5.616 5.615ZM39.86 28.42c-.422-2.488-1.779-4.982-3.819-7.022s-4.534-3.397-7.021-3.82c-2.59-.44-4.873.174-6.428 1.729a3.89 3.89 0 0 0 0 5.496 3.86 3.86 0 0 0 2.748 1.138 3.86 3.86 0 0 0 2.73-1.12c.093-.093.184-.147.252-.148.04-.002.07.021.088.039a.16.16 0 0 1 .046.116c-.001.085-.06.19-.165.294-.327.328-.97.686-1.783 1.14-1.961 1.095-4.926 2.749-8.838 6.661a.813.813 0 0 0 0 1.149l5.69 5.69a.81.81 0 0 0 1.149 0c3.912-3.913 5.566-6.877 6.661-8.839.454-.813.812-1.455 1.14-1.783.163-.163.32-.208.41-.119.1.101-.025.257-.108.34a.809.809 0 0 0-.098.118 3.857 3.857 0 0 0-1.016 2.62c0 1.038.404 2.014 1.138 2.748a3.89 3.89 0 0 0 5.496 0c1.555-1.555 2.169-3.837 1.729-6.428Zm-2.877 5.279a2.264 2.264 0 0 1-3.198 0 2.247 2.247 0 0 1-.662-1.6c0-.604.235-1.172.662-1.599a.816.816 0 0 0 .108-.133c.74-.867.556-1.914-.024-2.494-.628-.628-1.79-.8-2.708.118-.488.488-.874 1.18-1.41 2.14-.996 1.785-2.475 4.435-5.822 7.903l-4.531-4.532c3.467-3.347 6.117-4.826 7.902-5.821.96-.536 1.653-.923 2.14-1.41.918-.918.747-2.08.119-2.708-.604-.604-1.711-.778-2.597.069a2.264 2.264 0 0 1-3.222.023 2.247 2.247 0 0 1-.662-1.6c0-.604.235-1.172.663-1.6 1.172-1.171 2.95-1.624 5.006-1.275 2.159.367 4.341 1.563 6.145 3.367 1.804 1.804 3 3.986 3.366 6.145.35 2.056-.103 3.834-1.275 5.007Z" fill="#FF7010"/></svg>
